images/icon/sso.svg

<svg height="140" viewBox="0 0 140 140" width="140" xmlns="http://www.w3.org/2000/svg"><g fill="#111827" transform="scale(5.83333333)"><path d="m22 6.5h-.5v-1.5a5 5 0 0 0 -10 0v1.5a2 2 0 0 0 -2 2v4.089a.25.25 0 0 0 .1.2 7.089 7.089 0 0 1 2.187 2.54.251.251 0 0 0 .223.137h5.919a3.012 3.012 0 0 1 3.049 2.771.249.249 0 0 0 .249.232h.773a2 2 0 0 0 2-2v-7.969a2 2 0 0 0 -2-2zm-8.5-1.5a3 3 0 0 1 6 0v1.25a.25.25 0 0 1 -.25.25h-5.5a.25.25 0 0 1 -.25-.25zm4 7.263v1.208a.75.75 0 0 1 -1.5 0v-1.208a1.5 1.5 0 1 1 1.5 0z"/><path d="m19.5 18.406a1.547 1.547 0 0 0 -1.566-1.438h-7.1a5.541 5.541 0 0 0 -5.3-4.018c-.169 0-.341.008-.513.024a5.6 5.6 0 0 0 -5.021 5.486 5.525 5.525 0 0 0 5.524 5.54h.026a5.5 5.5 0 0 0 5.293-4.013h.51a.248.248 0 0 1 .219.127l.935 1.659a.5.5 0 0 0 .859.021l1.061-1.694a.248.248 0 0 1 .209-.116h.217a.254.254 0 0 1 .22.126l.945 1.653a.5.5 0 0 0 .858.017l1.124-1.798a1.507 1.507 0 0 0 1.5-1.576zm-15 1.319a1.25 1.25 0 1 1 1.25-1.25 1.25 1.25 0 0 1 -1.25 1.25z"/></g></svg>

<svg viewBox="0 0 140 140" height="140" width="140" xmlns="http://www.w3.org/2000/svg"><g transform="matrix(5.833333333333333,0,0,5.833333333333333,0,0)"><path d="M22,6.5h-.5V5a5,5,0,0,0-10,0V6.5a2,2,0,0,0-2,2v4.089a.25.25,0,0,0,.1.2,7.089,7.089,0,0,1,2.187,2.54.251.251,0,0,0,.223.137h5.919a3.012,3.012,0,0,1,3.049,2.771.249.249,0,0,0,.249.232H22a2,2,0,0,0,2-2V8.5A2,2,0,0,0,22,6.5ZM13.5,5a3,3,0,0,1,6,0V6.25a.25.25,0,0,1-.25.25h-5.5a.25.25,0,0,1-.25-.25Zm4,7.263v1.208a.75.75,0,0,1-1.5,0V12.263a1.5,1.5,0,1,1,1.5,0Z" fill="#111827" stroke="none" stroke-linecap="round" stroke-linejoin="round" stroke-width="0"></path><path d="M19.5,18.406a1.547,1.547,0,0,0-1.566-1.438h-7.1a5.541,5.541,0,0,0-5.3-4.018c-.169,0-.341.008-.513.024A5.6,5.6,0,0,0,0,18.46,5.525,5.525,0,0,0,5.524,24H5.55a5.5,5.5,0,0,0,5.293-4.013l.51,0a.248.248,0,0,1,.219.127l.935,1.659a.5.5,0,0,0,.859.021L14.427,20.1a.248.248,0,0,1,.209-.116l.217,0a.254.254,0,0,1,.22.126l.945,1.653a.5.5,0,0,0,.858.017L18,19.982v0A1.507,1.507,0,0,0,19.5,18.406Zm-15,1.319a1.25,1.25,0,1,1,1.25-1.25A1.25,1.25,0,0,1,4.5,19.725Z" fill="#111827" stroke="none" stroke-linecap="round" stroke-linejoin="round" stroke-width="0"></path></g></svg>
